X:3760
T:Muillean Dubh (the Black Mill)
M:4/4
O:Scotland
R:Reel
Z:Richard Robinson 
%%TUNEURL: http://www.leeds.ac.uk/music/Info/RRTuneBk/gettune/00000a25.html
%%ID:00000a25
K:A min
a|\
{f}ede^f g2fe|dAdB dGGg|1ede^f g2fe|dGdB A2Aa\
:|2 ede^f gage|dBgB A2A||
e|\
eceB eAAB|dBdA dGGg|eceB eAAB|dGdB A2A>a|
eceB eAAB|dBdA dGGg|ede^f gage|dBgB A2A|]
